public/illustrations/_map.svg

<svg width="290" height="275" viewBox="0 0 290 275" fill="none" xmlns="http://www.w3.org/2000/svg">
<path d="M261.85 251.734C237.78 245.703 214.277 240.28 191 233.611C183.1 231.346 177.281 232.96 170.612 236.854C150.535 248.775 129.991 260.258 109.815 271.995C107.606 273.397 104.944 274.36 102.353 274.6C99.7194 274.983 96.9868 274.728 94.4099 273.949C66.489 265.992 38.4407 258.445 10.4774 250.63C1.45833 248.166 1.5008 248.025 1.40169 238.666C0.891982 169.218 0.509712 99.7984 0 30.3505C0.0566346 27.2639 0.382291 24.2482 0.892002 21.1474C1.3026 17.8626 3.73788 16.6875 6.54129 16.2203C24.9617 13.1195 43.3396 10.1603 61.5902 7.15872C67.2112 6.21009 72.6905 5.23311 78.4248 4.90747C84.7679 4.48271 86.1696 6.69147 85.4333 12.9779C84.6263 19.9864 84.2582 26.9808 83.9892 34.1592C84.0883 34.7822 84.3715 35.3202 84.6546 35.8441C84.9803 36.2405 85.5749 36.7218 86.0705 37.0192C90.134 38.2651 94.325 39.1006 98.5018 39.9359C99.6628 39.9925 100.781 39.7518 101.659 39.2704C126.89 26.9949 152.064 14.861 177.238 2.28816C181.302 0.121894 185.946 -0.529398 190.533 0.433386C208.415 4.42611 226.369 8.14984 244.435 12.0435C256.541 14.5637 268.618 17.2255 280.596 19.7032C287.704 21.1332 289.644 23.5119 289.021 30.8744C287.109 56.9403 285.07 82.9639 283.131 109.171C279.69 154.762 276.391 200.395 272.908 246.113C272.908 247.586 272.667 248.846 272.243 250.205C271.294 253.32 269.17 254.453 265.871 253.589C264.385 253.136 262.799 252.499 261.893 252.074L261.836 251.763L261.85 251.734ZM106.983 261.348C107.832 261.008 108.498 260.768 109.333 260.442C124.214 251.961 138.967 243.452 153.749 234.801C154.315 234.39 154.754 233.923 154.966 233.243L155.547 231.346C155.306 221.506 154.344 211.58 154.683 201.769C155.037 196.247 156.524 190.923 158.775 185.996C162.046 178.704 169.069 174.627 175.822 170.931C176.842 170.507 177.847 169.629 178.456 168.623C179.065 167.618 179.433 166.4 179.319 165.339C179.702 150.061 180.126 134.643 180.679 119.267C180.933 111.196 181.075 102.956 181.358 94.3049C175.44 95.749 170.003 98.5242 165.345 102.588C152.05 113.617 138.939 125.015 125.502 136.002C120.363 140.207 114.813 143.832 109.319 147.782C108.569 148.292 107.294 149.085 107.266 149.665C107.039 155.229 107.096 160.864 107.11 166.641C107.606 166.5 108.229 166.386 108.71 166.245C119.782 161.487 129.354 167.972 128.617 180.035C127.853 192.679 121.184 201.896 110.409 208.069C108.073 209.428 106.629 210.759 107.054 213.704C107.124 214.908 107.11 215.941 107.054 217.102L107.082 261.532L106.983 261.362V261.348ZM96.7744 210.547C94.1126 210.037 92.1021 209.853 90.0207 209.372C79.4725 206.582 69.8305 202.307 63.5441 192.835C59.4947 186.704 58.7301 179.072 62.2839 174.683C66.6731 169.062 72.6622 168.822 79.0619 170.195C83.9608 171.101 88.9164 172.319 93.8436 170.28C95.8824 169.416 96.9301 168.411 96.8735 166.174C96.7036 161.388 96.6753 156.645 96.9302 151.973C97.2133 151.024 96.8311 149.863 96.3214 149.127C95.7125 148.207 94.8489 147.64 93.9002 147.357C86.9908 144.794 80.3221 141.878 73.3702 139.443C52.8118 132.108 32.1685 135.719 11.2278 138.791C10.9446 139.74 10.9588 140.632 10.9871 141.524C11.0862 160.057 11.3694 178.506 11.3269 197.011C11.2986 199.517 12.2614 200.254 14.4701 200.792C30.4128 204.331 46.3554 207.885 62.2981 211.425C69.7739 213.124 71.6711 215.63 71.1048 223.304C70.5384 230.978 69.8305 238.609 69.0801 246.368C68.5138 252.711 71.2605 256.803 77.3063 258.658L82.8565 260.357C87.3589 261.589 91.918 262.679 96.8735 263.911L96.8169 210.887L96.7603 210.575L96.7744 210.547ZM269.51 154.125C271.28 129.489 273.05 105.306 275.032 80.4436C271.067 81.3073 267.995 82.1427 264.88 82.6665C251.769 84.8753 238.701 87.3955 225.448 89.1087C215.268 90.4396 205.074 90.8643 194.88 91.7422C192.912 91.8838 191.637 92.6767 191.652 95.0411C191.085 119.153 190.25 143.18 189.684 167.292C189.669 168.326 190.292 170.138 191.099 170.393C195.446 172.163 199.949 173.395 204.309 170.294C206.377 168.85 208.175 167.335 209.888 165.636C223.749 151.817 240.315 147.994 259.118 151.378C262.487 151.973 265.871 153.006 269.708 154.026L269.538 154.125H269.51ZM107.082 136.71C107.931 136.37 108.809 135.903 109.645 135.577C111.542 134.232 113.425 132.887 115.181 131.499C128.603 120.059 141.884 108.577 155.264 97.2782C161.664 91.8413 168.63 86.9991 176.955 84.9602C180.919 84.0966 181.91 82.3267 181.854 78.6171C181.769 69.7114 182.264 60.8198 182.477 51.4185C177.889 50.9088 173.231 50.6681 168.658 50.5973C165.345 50.7672 162.145 51.5601 159.172 53.0326C156.283 54.2219 153.89 55.2696 151.639 52.5087C149.841 50.1867 150.662 47.4682 153.961 44.9338C158.789 41.2243 164.325 40.1058 170.329 40.3181C174.548 40.573 178.626 40.7854 182.972 41.0828L183.836 11.1373C183.425 11.0099 182.944 11.1656 182.448 11.3072C157.926 23.2004 133.417 35.0937 108.993 47.1709C108.639 47.355 108.285 47.5532 108.031 47.9071C107.776 48.2752 107.507 48.6434 107.393 49.0399C107.252 56.2608 107.393 63.5524 107.351 70.9432C110.919 70.4052 113.949 69.7114 116.851 69.414C126.678 68.2813 136.051 69.0742 144.022 75.9553C147.321 78.7445 148.199 81.6754 146.061 84.2806C143.923 86.8857 141.275 86.3761 137.778 84.2665C134.635 82.4117 131.222 80.033 127.867 79.9056C121.722 79.6508 115.436 80.8401 109.149 81.5763C108.625 81.8595 108.186 82.3125 107.747 82.7798C107.45 83.2753 107.28 83.8276 107.209 84.5355C107.096 101.823 107.167 119.026 107.124 137.078L107.068 136.767L107.082 136.71ZM34.9294 93.7527C35.6515 93.8235 36.0904 93.8093 36.6426 93.9792C46.228 94.1067 49.796 96.9667 51.9906 106.226C52.1322 106.722 52.4578 107.104 52.7835 107.501C53.1091 107.897 53.6047 108.194 54.0153 108.322C61.3778 110.87 65.2289 116.194 65.8661 123.797C65.7528 124.647 66.0926 125.496 66.5032 126.063C67.0554 126.671 67.82 127.054 68.5421 127.139C72.5065 128.201 76.4001 129.546 80.3221 130.749C85.6599 132.675 90.9835 134.6 96.8169 136.837L96.9019 84.2947C82.1627 87.4804 68.4996 87.5937 57.1585 76.281C46.3696 65.5771 43.2689 52.4804 44.6847 37.6705L10.265 29.6568C10.35 47.7514 10.6048 65.2939 10.6473 83.0771C26.7457 78.3765 32.7207 81.0949 34.8303 93.5828L34.9294 93.7527ZM191.836 81.3498C199.566 80.7551 206.589 80.0896 213.513 79.6932C230.645 78.872 247.847 77.3145 264.385 72.1608C267.146 71.3821 269.949 70.9007 272.767 70.8724C274.735 70.7308 275.754 70.3061 275.839 68.1115C276.575 56.0483 277.439 44.0277 278.444 32.0354C278.6 29.5718 277.651 28.8355 275.669 28.524C270.629 27.5754 265.673 26.3578 260.59 25.5366C259.868 25.4658 259.245 25.5649 258.58 25.8056C257.914 26.0463 257.348 26.4569 256.767 26.8816C250.467 32.9557 244.761 39.497 238.276 45.217C227.445 54.4909 214.348 57.1386 200.472 56.0059C198.009 55.8501 195.574 55.0997 192.643 54.5051C192.331 63.7365 192.147 72.5715 191.836 81.3498ZM267.131 185.09C267.514 178.988 268.108 173.692 268.151 168.227C268.094 167.462 267.882 166.67 267.514 165.962C267.146 165.254 266.579 164.645 265.815 164.262C247.423 157.594 230.489 159.222 216.16 173.65C212.097 177.741 207.481 181.21 201.761 181.975C197.74 182.527 193.379 181.777 188.947 181.748C188.636 194.392 188.197 207.432 187.9 220.515C187.928 221.407 189.429 222.766 190.42 222.922C198.759 225.173 207.014 227.254 215.396 229.378C216.755 229.788 218.327 229.973 220.847 230.454C219.572 227.849 218.808 225.98 217.831 224.352C216.656 222.369 215.311 220.472 213.966 218.575C210.752 213.591 211.077 208.664 214.589 203.963C219.176 197.663 225.321 194.519 232.91 192.99C239.196 191.801 245.341 190.13 251.33 187.964C256.385 185.953 261.071 183.249 267.16 185.104L267.131 185.09ZM262.615 241.455L263.238 239.431C264.158 226.235 265.234 213.096 266.154 199.9C266.537 195.284 264.016 193.33 259.91 195.624C251.557 200.169 242.382 202.109 233.108 203.864C229.979 204.388 227.091 206.611 224.443 208.466C221.795 210.321 222.036 212.472 223.721 215.205C226.043 218.731 229.229 222.369 229.639 226.348C230.305 233.356 234.326 234.744 240.046 235.905C247.607 237.335 254.913 239.572 262.714 241.653L262.615 241.484V241.455ZM246.531 22.5775L194.087 11.562C193.846 21.558 193.577 30.6478 193.124 39.8509C192.968 42.7675 193.903 44.0844 196.749 44.9622C213.796 49.7336 237.823 39.4686 246.559 23.4835C246.559 23.4835 246.644 23.2146 246.531 22.5916V22.5775ZM53.4772 39.9076C54.4825 46.2931 55.0205 51.7866 56.5497 56.9828C60.5424 70.0512 71.4304 77.0881 85.0086 75.7571C88.0527 75.5023 91.0826 74.7943 94.1126 74.5394C96.1231 74.2704 96.8594 73.3077 96.7603 71.198C96.562 65.0674 96.5479 58.8376 96.7886 52.7069C96.7886 50.3283 95.8116 49.592 93.7445 49.1107C89.2845 48.1903 84.7821 46.9585 80.1805 45.9957L53.1941 39.8084L53.4631 39.8934L53.4772 39.9076ZM10.8172 127.535L55.1621 123.925C54.794 119.819 52.8684 117.893 48.2952 117.822C41.6689 117.723 40.2389 116.095 41.2725 109.313C41.3574 109.044 41.4424 108.775 41.3433 108.591C42.122 105.575 40.5079 104.046 37.6479 104.202C35.5382 104.301 33.3153 104.796 31.3189 105.518C25.9528 107.571 22.2574 104.669 23.0928 99.0055C23.2344 97.5755 23.9281 96.3013 24.0697 94.8571C24.6219 91.6148 22.9653 90.2272 19.8079 90.8927C13.2666 92.4501 10.4349 95.8765 10.5057 102.404C10.5057 106.255 10.5057 110.106 10.6615 113.999C10.8597 118.658 10.803 123.217 10.7747 127.663L10.8172 127.521V127.535ZM58.0222 253.915C58.8859 243.367 59.5513 234.39 60.5424 225.371C60.8681 222.355 59.8628 221.307 57.0735 220.755C46.766 218.632 36.5435 216.253 26.3068 213.86C21.4503 212.812 16.7214 211.807 11.4119 210.788C11.5251 220.6 11.5676 229.633 11.7517 238.723C11.8933 239.218 12.1764 239.742 12.6437 240.181C13.0967 240.62 13.6065 240.917 14.1445 241.087C20.9123 243.154 27.8076 244.825 34.5754 246.892C42.1503 249.214 49.7394 251.536 58.1354 254.099L58.0363 253.929L58.0222 253.915ZM178.668 180.97C172.226 185.076 166.237 188.714 165.642 195.935C164.807 205.45 165.401 215.106 165.416 224.734C165.571 225.668 165.727 226.603 166.166 227.622C173.642 224.182 177.535 218.518 177.875 210.632L178.003 210.221L178.753 181.14L178.654 180.97H178.668ZM74.7719 15.3283L29.3084 22.5916L29.2518 23.7526L73.4834 34.0317L74.7719 15.3283ZM96.831 200.197L96.7744 180.049C89.7659 182.64 83.4511 181.012 77.2072 180.134C75.0975 179.78 72.7896 180.559 70.595 180.927C71.1048 183.15 71.6428 185.246 72.3224 187.384C72.8463 188.573 73.7241 189.592 74.6727 190.328C80.5486 196.275 88.0385 198.413 96.7744 200.353L96.8169 200.211L96.831 200.197ZM107.082 198.158C114.105 192.608 118.437 186.676 118.281 178.492C118.225 177.727 117.885 176.892 117.333 176.269C116.781 175.646 116.228 175.037 115.591 174.697C113.467 173.904 107.224 178.803 107.195 181.309C107.054 186.605 107.096 191.787 107.039 198.286L107.082 198.144V198.158Z" fill="#102185"/>
<path d="M27.0713 228.302L24.4944 227.509C21.691 226.504 19.7654 224.578 20.5866 221.421C21.4078 218.264 23.8006 217.216 26.8589 217.867C33.3435 219.41 39.8707 220.812 46.2846 222.624C49.2579 223.531 51.2826 225.64 50.433 228.925C49.3995 232.309 46.95 233.045 44.0192 232.436C38.2991 231.275 32.848 229.76 27.2129 228.33L27.0713 228.288V228.302Z" fill="#102185"/>
<path d="M31.0502 242.404L22.2435 239.714C18.718 238.638 16.9057 235.863 17.9109 233.059C19.0436 229.845 21.663 229.024 24.7779 229.973C30.7812 231.657 36.6853 233.172 42.6319 234.999C46.5539 236.202 48.1397 238.765 47.191 241.866C46.2424 244.967 43.5381 246.071 39.5595 245.009L31.036 242.404H31.0502Z" fill="#102185"/>
</svg>

<svg xmlns="http://www.w3.org/2000/svg" width="290" height="275" fill="none" viewBox="0 0 290 275"><path fill="#102185" d="M261.85 251.734c-24.07-6.031-47.573-11.454-70.85-18.123-7.9-2.265-13.719-.651-20.388 3.243-20.077 11.921-40.621 23.404-60.797 35.141-2.209 1.402-4.871 2.365-7.462 2.605-2.634.383-5.366.128-7.943-.651-27.921-7.957-55.97-15.504-83.933-23.319-9.019-2.464-8.976-2.605-9.075-11.964C.892 169.218.51 99.798 0 30.351c.057-3.087.382-6.103.892-9.204.41-3.284 2.846-4.46 5.65-4.927 18.42-3.1 36.798-6.06 55.048-9.061 5.621-.949 11.1-1.926 16.835-2.252 6.343-.424 7.745 1.784 7.008 8.07-.807 7.01-1.175 14.004-1.444 21.182.1.623.382 1.161.666 1.685.325.396.92.878 1.415 1.175 4.064 1.246 8.255 2.082 12.432 2.917 1.16.056 2.279-.184 3.157-.666 25.231-12.275 50.405-24.409 75.579-36.982 4.064-2.166 8.708-2.817 13.295-1.855 17.882 3.993 35.836 7.717 53.902 11.61 12.106 2.52 24.183 5.183 36.161 7.66 7.108 1.43 9.048 3.809 8.425 11.171-1.912 26.066-3.951 52.09-5.89 78.297-3.441 45.591-6.74 91.224-10.223 136.942 0 1.473-.241 2.733-.665 4.092-.949 3.115-3.073 4.248-6.372 3.384a33 33 0 0 1-3.978-1.515l-.057-.311zm-154.867 9.614c.849-.34 1.515-.58 2.35-.906a4457 4457 0 0 0 44.416-25.641c.566-.411 1.005-.878 1.217-1.558l.581-1.897c-.241-9.84-1.203-19.766-.864-29.577.354-5.522 1.841-10.846 4.092-15.773 3.271-7.292 10.294-11.369 17.047-15.065 1.02-.424 2.025-1.302 2.634-2.308s.977-2.223.863-3.284c.383-15.278.807-30.696 1.36-46.072.254-8.071.396-16.311.679-24.962-5.918 1.444-11.355 4.22-16.013 8.283-13.295 11.029-26.406 22.427-39.843 33.414-5.139 4.205-10.689 7.83-16.183 11.78-.75.51-2.025 1.303-2.053 1.883-.227 5.564-.17 11.199-.156 16.976.496-.141 1.119-.255 1.6-.396 11.072-4.758 20.644 1.727 19.907 13.79-.764 12.644-7.433 21.861-18.208 28.034-2.336 1.359-3.78 2.69-3.355 5.635.07 1.204.056 2.237 0 3.398l.028 44.43-.099-.17zm-10.209-50.801c-2.661-.51-4.672-.694-6.753-1.175-10.549-2.79-20.19-7.065-26.477-16.537-4.05-6.131-4.814-13.763-1.26-18.152 4.39-5.621 10.378-5.861 16.778-4.488 4.899.906 9.854 2.124 14.782.085 2.038-.864 3.086-1.869 3.03-4.106-.17-4.786-.199-9.529.056-14.201.283-.949-.099-2.11-.609-2.846-.608-.92-1.472-1.487-2.42-1.77-6.91-2.563-13.579-5.479-20.53-7.914-20.56-7.335-41.202-3.724-62.143-.652-.283.949-.27 1.841-.24 2.733.098 18.533.381 36.982.339 55.487-.028 2.506.934 3.243 3.143 3.781 15.943 3.539 31.885 7.093 47.828 10.633 7.476 1.699 9.373 4.205 8.807 11.879-.567 7.674-1.275 15.305-2.025 23.064-.566 6.343 2.18 10.435 8.226 12.29l5.55 1.699c4.503 1.232 9.062 2.322 14.018 3.554l-.057-53.024-.057-.312zm172.736-56.422c1.77-24.636 3.54-48.819 5.522-73.681-3.965.863-7.037 1.699-10.152 2.222-13.111 2.21-26.179 4.73-39.432 6.443-10.18 1.33-20.374 1.755-30.568 2.633-1.968.142-3.243.935-3.228 3.3-.567 24.111-1.402 48.138-1.968 72.25-.015 1.034.608 2.846 1.415 3.101 4.347 1.77 8.85 3.002 13.21-.099a41.7 41.7 0 0 0 5.579-4.658c13.861-13.819 30.427-17.642 49.23-14.258 3.369.595 6.753 1.628 10.59 2.648l-.17.099zM107.082 136.71c.849-.34 1.727-.807 2.563-1.133 1.897-1.345 3.78-2.69 5.536-4.078 13.422-11.44 26.703-22.922 40.083-34.22 6.4-5.438 13.366-10.28 21.691-12.319 3.964-.863 4.955-2.633 4.899-6.343-.085-8.906.41-17.797.623-27.199-4.588-.51-9.246-.75-13.819-.82-3.313.17-6.513.962-9.486 2.435-2.889 1.189-5.282 2.237-7.533-.524-1.798-2.322-.977-5.04 2.322-7.575 4.828-3.71 10.364-4.828 16.368-4.616 4.219.255 8.297.467 12.643.765l.864-29.946c-.411-.127-.892.029-1.388.17-24.522 11.893-49.031 23.787-73.455 35.864-.354.184-.708.382-.962.736-.255.368-.524.736-.638 1.133-.141 7.22 0 14.512-.042 21.903 3.568-.538 6.598-1.232 9.5-1.529 9.827-1.133 19.2-.34 27.171 6.541 3.299 2.79 4.177 5.72 2.039 8.326-2.138 2.605-4.786 2.095-8.283-.015-3.143-1.854-6.556-4.233-9.911-4.36-6.145-.255-12.431.934-18.718 1.67-.524.284-.963.737-1.402 1.204-.297.495-.467 1.048-.538 1.755-.113 17.288-.042 34.491-.085 52.543l-.056-.311zM34.929 93.753c.722.07 1.161.056 1.714.226 9.585.128 13.153 2.988 15.348 12.247.141.496.467.878.792 1.275a2.75 2.75 0 0 0 1.232.821c7.363 2.548 11.214 7.872 11.851 15.475-.113.85.227 1.699.637 2.266.552.608 1.317.991 2.04 1.076 3.963 1.062 7.857 2.407 11.78 3.61 5.337 1.926 10.66 3.851 16.494 6.088l.085-52.542C82.162 87.48 68.5 87.594 57.158 76.28c-10.788-10.704-13.89-23.8-12.473-38.61l-34.42-8.014c.085 18.094.34 35.637.382 53.42 16.099-4.7 22.074-1.982 24.183 10.506zM191.836 81.35c7.73-.595 14.753-1.26 21.677-1.657 17.132-.821 34.334-2.379 50.872-7.532 2.761-.779 5.564-1.26 8.382-1.289 1.968-.141 2.987-.566 3.072-2.76.736-12.064 1.6-24.084 2.605-36.077.156-2.463-.793-3.2-2.775-3.511-5.04-.949-9.996-2.166-15.079-2.987-.722-.071-1.345.028-2.01.269-.666.24-1.232.65-1.813 1.076-6.3 6.074-12.006 12.615-18.491 18.335-10.831 9.274-23.928 11.922-37.804 10.789-2.463-.156-4.898-.906-7.829-1.5-.312 9.23-.496 18.066-.807 26.844m75.295 103.74c.383-6.102.977-11.398 1.02-16.863a5.9 5.9 0 0 0-.637-2.265 3.87 3.87 0 0 0-1.699-1.7c-18.392-6.668-35.326-5.04-49.655 9.388-4.063 4.091-8.679 7.56-14.399 8.325-4.021.552-8.382-.198-12.814-.227-.311 12.644-.75 25.684-1.047 38.767.028.892 1.529 2.251 2.52 2.407 8.339 2.251 16.594 4.332 24.976 6.456 1.359.41 2.931.595 5.451 1.076-1.275-2.605-2.039-4.474-3.016-6.102-1.175-1.983-2.52-3.88-3.865-5.777-3.214-4.984-2.889-9.911.623-14.612 4.587-6.3 10.732-9.444 18.321-10.973a119 119 0 0 0 18.42-5.026c5.055-2.011 9.741-4.715 15.83-2.86zm-4.516 56.365.623-2.024c.92-13.196 1.996-26.335 2.916-39.531.383-4.616-2.138-6.57-6.244-4.276-8.353 4.545-17.528 6.485-26.802 8.24-3.129.524-6.017 2.747-8.665 4.602s-2.407 4.006-.722 6.739c2.322 3.526 5.508 7.164 5.918 11.143.666 7.008 4.687 8.396 10.407 9.557 7.561 1.43 14.867 3.667 22.668 5.748l-.099-.169zM246.531 22.578l-52.444-11.016c-.241 9.996-.51 19.086-.963 28.289-.156 2.916.779 4.233 3.625 5.111 17.047 4.772 41.074-5.493 49.81-21.479 0 0 .085-.268-.028-.891zM53.477 39.908c1.006 6.385 1.544 11.879 3.073 17.075 3.992 13.068 14.88 20.105 28.459 18.774 3.044-.255 6.074-.963 9.104-1.218 2.01-.269 2.746-1.231 2.647-3.341-.198-6.13-.212-12.36.029-18.491 0-2.379-.977-3.115-3.044-3.596-4.46-.92-8.963-2.152-13.565-3.115l-26.986-6.188.27.085zm-42.66 87.627 44.345-3.61c-.368-4.106-2.294-6.032-6.867-6.103-6.626-.099-8.056-1.727-7.023-8.509.085-.269.17-.538.071-.722.779-3.016-.835-4.545-3.695-4.389-2.11.099-4.333.594-6.33 1.316-5.365 2.053-9.06-.849-8.225-6.513.141-1.43.835-2.704.977-4.148.552-3.242-1.105-4.63-4.262-3.964-6.541 1.557-9.373 4.983-9.302 11.511 0 3.851 0 7.702.155 11.595.199 4.659.142 9.218.114 13.664l.042-.142zm47.205 126.38c.864-10.548 1.53-19.525 2.52-28.544.326-3.016-.68-4.064-3.468-4.616-10.308-2.123-20.53-4.502-30.767-6.895-4.857-1.048-9.586-2.053-14.895-3.072.113 9.812.156 18.845.34 27.935a3.2 3.2 0 0 0 .892 1.458c.453.439.963.736 1.5.906 6.768 2.067 13.664 3.738 20.431 5.805 7.575 2.322 15.164 4.644 23.56 7.207l-.099-.17zm120.646-72.945c-6.442 4.106-12.431 7.744-13.026 14.965-.835 9.515-.241 19.171-.226 28.799.155.934.311 1.869.75 2.888 7.476-3.44 11.369-9.104 11.709-16.99l.128-.411.75-29.081-.099-.17zM74.772 15.328l-45.464 7.264-.056 1.16 44.231 10.28zM96.83 200.197l-.057-20.148c-7.008 2.591-13.323.963-19.567.085-2.11-.354-4.417.425-6.612.793.51 2.223 1.048 4.319 1.727 6.457.524 1.189 1.402 2.208 2.35 2.944 5.877 5.947 13.367 8.085 22.102 10.025l.043-.142zm10.251-2.039c7.023-5.55 11.355-11.482 11.199-19.666a3.9 3.9 0 0 0-.948-2.223c-.552-.623-1.105-1.232-1.742-1.572-2.124-.793-8.367 4.106-8.396 6.612-.141 5.296-.099 10.478-.156 16.977l.043-.142z"/><path fill="#102185" d="m27.071 228.302-2.577-.793c-2.803-1.005-4.729-2.931-3.907-6.088.82-3.157 3.214-4.205 6.272-3.554 6.484 1.543 13.012 2.945 19.426 4.757 2.973.907 4.998 3.016 4.148 6.301-1.033 3.384-3.483 4.12-6.414 3.511-5.72-1.161-11.171-2.676-16.806-4.106l-.142-.042zM31.05 242.404l-8.806-2.69c-3.526-1.076-5.338-3.851-4.333-6.655 1.133-3.214 3.752-4.035 6.867-3.086 6.003 1.684 11.907 3.199 17.854 5.026 3.922 1.203 5.508 3.766 4.559 6.867s-3.653 4.205-7.632 3.143l-8.523-2.605z"/></svg>
